;FLAVOR:Marlin
;TIME:1217
;Filament used: 0.244452m
;Layer height: 0.12
;MINX:63.462
;MINY:70.937
;MINZ:0.12
;MAXX:262.954
;MAXY:218.403
;MAXZ:15
;TARGET_MACHINE.NAME:Creality K1 Max
;POSTPROCESSED
;  [CreateThumbnail]
;Generated with Cura_SteamEngine 5.8.1
;
;

M82 ;absolute extrusion mode
M140 S0
M104 S0 
START_PRINT EXTRUDER_TEMP=200 BED_TEMP=60

G92 E0
G92 E0
G1 F2400 E-0.5
;LAYER_COUNT:83
;LAYER:0
M107
G0 F6000 X237.055 Y193.504 Z0.12
;TYPE:SKIRT
G1 F2400 E0
G1 F1200 X237.705 Y192.779 E0.01943
G1 X238.416 Y192.114 E0.03886
G1 X239.182 Y191.515 E0.05826
G1 X239.965 Y191.005 E0.07691
G1 X240.628 Y190.644 E0.09198
G1 X241.439 Y190.24 E0.11006
G1 X242.498 Y189.743 E0.1334
G1 X243.398 Y189.371 E0.15284
G1 X244.328 Y189.078 E0.1723
G1 X245.279 Y188.871 E0.19172
G1 X246.24 Y188.748 E0.21105
G1 X247.053 Y188.711 E0.22729
G1 X248.117 Y188.702 E0.24853
G1 X249.126 Y188.717 E0.26867
G1 X250.096 Y188.78 E0.28806
G1 X251.061 Y188.928 E0.30755
G1 X252.005 Y189.161 E0.32695
G1 X252.89 Y189.462 E0.34561
G1 X253.585 Y189.76 E0.3607
G1 X254.755 Y190.313 E0.38652
G1 X255.428 Y190.651 E0.40155
G1 X256.278 Y191.127 E0.42099
G1 X257.082 Y191.677 E0.44043
G1 X257.834 Y192.296 E0.45987
G1 X258.5 Y192.948 E0.47847
G1 X258.956 Y193.466 E0.49224
G1 X259.546 Y194.186 E0.51082
G1 X260.261 Y195.102 E0.53401
G1 X260.823 Y195.897 E0.55344
G1 X261.314 Y196.738 E0.57287
G1 X261.7 Y197.554 E0.59088
G1 X262.058 Y198.527 E0.61157
G1 X262.253 Y199.219 E0.62592
G1 X262.46 Y200.076 E0.64351
G1 X262.713 Y201.239 E0.66727
G1 X262.877 Y202.2 E0.68672
G1 X262.954 Y203.171 E0.70616
G1 X262.944 Y204.144 E0.72558
G1 X262.851 Y205.107 E0.74489
G1 X262.709 Y205.899 E0.76094
G1 X262.484 Y206.93 E0.782
G1 X262.249 Y207.899 E0.8019
G1 X261.974 Y208.833 E0.82133
G1 X261.617 Y209.74 E0.84078
G1 X261.182 Y210.611 E0.86021
G1 X260.694 Y211.407 E0.87884
G1 X260.237 Y212.036 E0.89436
G1 X259.579 Y212.879 E0.9157
G1 X258.956 Y213.64 E0.93533
G1 X258.304 Y214.363 E0.95475
G1 X257.616 Y215.002 E0.97349
G1 X256.819 Y215.62 E0.99362
G1 X256.007 Y216.142 E1.01288
G1 X255.409 Y216.465 E1.02645
G1 X254.632 Y216.852 E1.04377
G1 X253.549 Y217.361 E1.06765
G1 X252.649 Y217.734 E1.08709
G1 X251.72 Y218.025 E1.10652
G1 X250.768 Y218.234 E1.12597
G1 X249.808 Y218.357 E1.14528
G1 X248.987 Y218.395 E1.16169
G1 X247.661 Y218.403 E1.18815
G1 X246.916 Y218.389 E1.20302
G1 X245.946 Y218.326 E1.22242
G1 X244.981 Y218.178 E1.2419
G1 X244.037 Y217.945 E1.2613
G1 X243.123 Y217.633 E1.28058
G1 X242.458 Y217.347 E1.29502
G1 X241.254 Y216.776 E1.32161
G1 X240.601 Y216.447 E1.33621
G1 X239.751 Y215.97 E1.35566
G1 X238.948 Y215.419 E1.37509
G1 X238.197 Y214.8 E1.39451
G1 X237.51 Y214.125 E1.41373
G1 X237.084 Y213.638 E1.42665
G1 X236.503 Y212.931 E1.44491
G1 X235.799 Y212.031 E1.46771
G1 X235.225 Y211.221 E1.48752
G1 X234.735 Y210.38 E1.50695
G1 X234.334 Y209.532 E1.52566
G1 X233.987 Y208.591 E1.54568
G1 X233.787 Y207.881 E1.5604
G1 X233.582 Y207.033 E1.57781
G1 X233.329 Y205.87 E1.60156
G1 X233.165 Y204.909 E1.62102
G1 X233.089 Y203.939 E1.64043
G1 X233.098 Y202.965 E1.65987
G1 X233.191 Y202.004 E1.67914
G1 X233.321 Y201.268 E1.69405
G1 X233.505 Y200.417 E1.71143
G1 X233.776 Y199.272 E1.73491
G1 X234.045 Y198.337 E1.75433
G1 X234.367 Y197.493 E1.77235
G1 X234.827 Y196.555 E1.7932
G1 X235.328 Y195.728 E1.8125
G1 X235.765 Y195.118 E1.82747
G1 X236.311 Y194.417 E1.8452
G1 X237.055 Y193.504 E1.86871
G0 F6000 X237.353 Y193.771
G1 F1200 X237.979 Y193.071 E1.88745
G1 X238.663 Y192.429 E1.90617
G1 X239.401 Y191.85 E1.92489
G1 X240.157 Y191.356 E1.94291
G1 X240.806 Y191.002 E1.95766
G1 X241.609 Y190.602 E1.97557
G1 X242.652 Y190.112 E1.99856
G1 X243.518 Y189.752 E2.01728
G1 X244.414 Y189.469 E2.03603
G1 X245.33 Y189.268 E2.05474
G1 X246.259 Y189.148 E2.07344
G1 X247.056 Y189.111 E2.08936
G1 X248.111 Y189.102 E2.11041
G1 X249.101 Y189.116 E2.13017
G1 X250.036 Y189.175 E2.14887
G1 X250.965 Y189.316 E2.16762
G1 X251.876 Y189.54 E2.18634
G1 X252.761 Y189.841 E2.205
G1 X253.414 Y190.122 E2.21918
G1 X254.576 Y190.671 E2.24483
G1 X255.233 Y191 E2.25949
G1 X256.053 Y191.458 E2.27824
G1 X256.828 Y191.986 E2.29695
G1 X257.554 Y192.582 E2.31569
G1 X258.22 Y193.234 E2.33429
G1 X258.647 Y193.719 E2.34719
G1 X259.231 Y194.432 E2.36558
G1 X259.935 Y195.333 E2.3884
G1 X260.478 Y196.099 E2.40714
G1 X260.952 Y196.909 E2.42587
G1 X261.338 Y197.725 E2.44388
G1 X261.673 Y198.635 E2.46323
G1 X261.864 Y199.313 E2.47729
G1 X262.069 Y200.161 E2.4947
G1 X262.319 Y201.307 E2.51811
G1 X262.478 Y202.232 E2.53684
G1 X262.554 Y203.168 E2.55558
G1 X262.546 Y204.106 E2.5743
G1 X262.457 Y205.037 E2.59296
G1 X262.318 Y205.814 E2.60871
G1 X262.095 Y206.836 E2.62959
G1 X261.865 Y207.787 E2.64911
G1 X261.602 Y208.687 E2.66782
G1 X261.259 Y209.562 E2.68658
G1 X260.841 Y210.402 E2.7053
G1 X260.353 Y211.198 E2.72394
G1 X259.922 Y211.79 E2.73855
G1 X259.269 Y212.626 E2.75972
G1 X258.659 Y213.372 E2.77895
G1 X258.031 Y214.07 E2.79769
G1 X257.37 Y214.686 E2.81572
G1 X256.602 Y215.284 E2.83514
G1 X255.817 Y215.79 E2.85378
G1 X255.231 Y216.107 E2.86708
G1 X254.462 Y216.49 E2.88422
G1 X253.395 Y216.992 E2.90775
G1 X252.529 Y217.352 E2.92647
G1 X251.634 Y217.634 E2.94519
G1 X250.717 Y217.837 E2.96394
G1 X249.789 Y217.957 E2.98261
G1 X248.985 Y217.995 E2.99867
G1 X247.668 Y218.003 E3.02496
G1 X246.941 Y217.99 E3.03947
G1 X246.006 Y217.931 E3.05816
G1 X245.077 Y217.79 E3.07691
G1 X244.166 Y217.566 E3.09564
G1 X243.281 Y217.265 E3.11429
G1 X242.629 Y216.985 E3.12845
G1 X241.434 Y216.419 E3.15484
G1 X240.796 Y216.098 E3.16909
G1 X239.977 Y215.64 E3.18782
G1 X239.202 Y215.11 E3.20655
G1 X238.477 Y214.514 E3.22528
G1 X237.811 Y213.861 E3.2439
G1 X237.393 Y213.384 E3.25655
G1 X236.818 Y212.684 E3.27463
G1 X236.125 Y211.799 E3.29706
G1 X235.57 Y211.019 E3.31617
G1 X235.097 Y210.209 E3.33488
G1 X234.696 Y209.361 E3.3536
G1 X234.372 Y208.483 E3.37228
G1 X234.176 Y207.787 E3.38671
G1 X233.973 Y206.948 E3.40394
G1 X233.723 Y205.802 E3.42734
G1 X233.564 Y204.877 E3.44607
G1 X233.489 Y203.942 E3.46479
G1 X233.496 Y203.003 E3.48353
G1 X233.585 Y202.073 E3.50218
G1 X233.712 Y201.352 E3.51679
G1 X233.894 Y200.509 E3.534
G1 X234.161 Y199.382 E3.55711
G1 X234.419 Y198.48 E3.57583
G1 X234.741 Y197.636 E3.59386
G1 X235.169 Y196.762 E3.61328
G1 X235.653 Y195.961 E3.63196
G1 X236.081 Y195.364 E3.64662
G1 X236.621 Y194.67 E3.66416
G1 X237.353 Y193.771 E3.6873
G0 F6000 X237.652 Y194.037
G1 F1200 X238.253 Y193.362 E3.70533
G1 X238.91 Y192.743 E3.72335
G1 X239.62 Y192.185 E3.74137
G1 X240.376 Y191.691 E3.75939
G1 X240.984 Y191.36 E3.77321
G1 X241.779 Y190.964 E3.79093
G1 X242.806 Y190.481 E3.81358
G1 X243.639 Y190.133 E3.83159
G1 X244.5 Y189.86 E3.84962
G1 X245.382 Y189.665 E3.86765
G1 X246.278 Y189.548 E3.88568
G1 X247.059 Y189.511 E3.90128
G1 X248.106 Y189.502 E3.92218
G1 X249.076 Y189.515 E3.94154
G1 X249.977 Y189.571 E3.95955
G1 X250.87 Y189.705 E3.97757
G1 X251.748 Y189.919 E3.99561
G1 X252.603 Y190.209 E4.01362
G1 X253.243 Y190.484 E4.02752
G1 X254.405 Y191.033 E4.05317
G1 X255.039 Y191.35 E4.06732
G1 X255.828 Y191.789 E4.08533
G1 X256.575 Y192.296 E4.10335
G1 X257.274 Y192.868 E4.12138
G1 X257.92 Y193.499 E4.1394
G1 X258.338 Y193.973 E4.15201
G1 X258.916 Y194.678 E4.1702
G1 X259.609 Y195.565 E4.19266
G1 X260.133 Y196.301 E4.21069
G1 X260.59 Y197.08 E4.22872
G1 X260.976 Y197.896 E4.24673
G1 X261.288 Y198.744 E4.26476
G1 X261.475 Y199.407 E4.27851
G1 X261.678 Y200.246 E4.29574
G1 X261.925 Y201.375 E4.3188
G1 X262.079 Y202.265 E4.33683
G1 X262.154 Y203.165 E4.35485
G1 X262.148 Y204.068 E4.37287
G1 X262.063 Y204.967 E4.39089
G1 X261.927 Y205.729 E4.40634
G1 X261.706 Y206.742 E4.42703
G1 X261.481 Y207.675 E4.44618
G1 X261.229 Y208.542 E4.4642
G1 X260.901 Y209.384 E4.48223
G1 X260.5 Y210.193 E4.50025
G1 X260.029 Y210.963 E4.51826
G1 X259.607 Y211.544 E4.53259
G1 X258.959 Y212.373 E4.55359
G1 X258.361 Y213.105 E4.57245
G1 X257.758 Y213.777 E4.59047
G1 X257.097 Y214.393 E4.6085
G1 X256.385 Y214.948 E4.62652
G1 X255.626 Y215.438 E4.64455
G1 X255.053 Y215.749 E4.65756
G1 X254.292 Y216.128 E4.67452
G1 X253.241 Y216.623 E4.69771
G1 X252.408 Y216.971 E4.71572
G1 X251.547 Y217.244 E4.73375
G1 X250.665 Y217.44 E4.75178
G1 X249.77 Y217.557 E4.76979
G1 X248.983 Y217.595 E4.78552
G1 X247.675 Y217.603 E4.81162
G1 X246.966 Y217.591 E4.82577
G1 X246.065 Y217.535 E4.84378
G1 X245.172 Y217.401 E4.8618
G1 X244.294 Y217.187 E4.87984
G1 X243.439 Y216.897 E4.89786
G1 X242.8 Y216.623 E4.91173
G1 X241.613 Y216.061 E4.93794
G1 X240.991 Y215.749 E4.95183
G1 X240.202 Y215.309 E4.96985
G1 X239.456 Y214.801 E4.98787
G1 X238.757 Y214.228 E5.0059
G1 X238.112 Y213.597 E5.02391
G1 X237.702 Y213.13 E5.03631
G1 X237.133 Y212.437 E5.05421
G1 X236.44 Y211.552 E5.07664
G1 X235.915 Y210.817 E5.09466
G1 X235.458 Y210.038 E5.11269
G1 X235.071 Y209.222 E5.13071
G1 X234.757 Y208.375 E5.14873
G1 X234.565 Y207.693 E5.16287
G1 X234.364 Y206.862 E5.17994
G1 X234.117 Y205.734 E5.20298
G1 X233.963 Y204.844 E5.221
G1 X233.889 Y203.944 E5.23903
G1 X233.894 Y203.041 E5.25705
G1 X233.979 Y202.142 E5.27507
G1 X234.103 Y201.436 E5.28937
G1 X234.283 Y200.601 E5.30642
G1 X234.546 Y199.491 E5.32918
G1 X234.793 Y198.623 E5.34719
G1 X235.115 Y197.779 E5.36522
G1 X235.512 Y196.968 E5.38324
G1 X235.978 Y196.194 E5.40127
G1 X236.397 Y195.61 E5.41561
G1 X236.937 Y194.916 E5.43316
G1 X237.652 Y194.037 E5.45577
G1 F2400 E4.95577
;MESH:step_motor_adapter.stl(1)
G0 F6000 X244.002 Y201.35
G0 X245.717 Y205.82
;TYPE:WALL-INNER
G1 F2400 E5.45577
G1 F833.3 X246.002 Y206.08 E5.46686
G1 F849.6 X247.065 Y206.672 E5.50115
G1 F900.6 X247.296 Y206.738 E5.50754
G1 F902.3 X248.744 Y206.738 E5.54597
G1 X248.986 Y206.668 E5.55266
G1 F851.1 X250.037 Y206.08 E5.58655
G1 F930.2 X250.416 Y205.734 E5.59976
G1 F1088.4 X250.571 Y205.53 E5.6054
G1 F909.1 X250.924 Y204.953 E5.62321
G1 F857.1 X251.243 Y203.993 E5.65148
G1 F877.5 X251.262 Y203.552 E5.66352
G1 F849.6 X251.001 Y202.164 E5.70333
G1 F916 X250.018 Y200.972 E5.74372
G1 F1012.7 X249.71 Y200.782 E5.75228
G1 F910.8 X248.735 Y200.404 E5.77978
G1 F905.7 X248.196 Y200.327 E5.79417
G1 F1078.7 X247.914 Y200.318 E5.80044
G1 F917.8 X247.305 Y200.404 E5.81649
G1 F863.3 X246.276 Y200.804 E5.84711
G1 F902.3 X245.99 Y201.009 E5.85645
G1 F866.4 X245.035 Y202.165 E5.89789
G1 F851.1 X244.778 Y203.552 E5.93758
G1 F879.1 X244.797 Y203.993 E5.94961
G1 F851.1 X245.114 Y204.953 E5.97806
G1 F902.3 X245.468 Y205.53 E5.99602
G1 F1083.5 X245.626 Y205.736 E6.00176
G1 F963.9 X245.717 Y205.82 E6.00484
G0 F6000 X245.404 Y206.128
;TYPE:WALL-OUTER
G1 F1200 X245.684 Y206.479 E6.0138
G1 X247.19 Y207.204 E6.04715
G1 X248.85 Y207.204 E6.08028
G1 X250.355 Y206.479 E6.11362
G1 X251.391 Y205.178 E6.14681
G1 X251.766 Y203.552 E6.18011
G1 X251.391 Y201.926 E6.21341
G1 X250.356 Y200.625 E6.24658
G1 X248.85 Y199.9 E6.27994
G1 X247.19 Y199.9 E6.31307
G1 X245.684 Y200.625 E6.34642
G1 X244.645 Y201.926 E6.37965
G1 X244.274 Y203.552 E6.41293
G1 X244.645 Y205.179 E6.44623
G1 X245.404 Y206.128 E6.47048
G0 F6000 X246.035 Y205.507
G1 F1200 X245.875 Y205.404 E6.47428
G1 X245.218 Y203.944 E6.50623
G1 X245.441 Y202.379 E6.53778
G1 X246.485 Y201.168 E6.56968
G1 X248.023 Y200.719 E6.60166
G1 X249.557 Y201.172 E6.63358
G1 X250.598 Y202.377 E6.66535
G1 X250.822 Y203.946 E6.69698
G1 X250.164 Y205.405 E6.72892
G1 X248.813 Y206.272 E6.76096
G1 X247.222 Y206.272 E6.79271
G1 X246.035 Y205.507 E6.82089
M104 S200
G1 F2400 E6.32089
;MESH:NONMESH
G0 F300 X246.035 Y205.507 Z0.24
G0 F6000 X245.872 Y205.76
G0 X245.692 Y205.571
G0 X244.971 Y203.991
G0 X244.85 Y202.025
G0 X244.002 Y201.35
G0 X237.652 Y194.037
;TIME_ELAPSED:22.506382
;LAYER:1
;note -- min layer time used
M106 S85
;TYPE:SKIRT
G1 F2400 E6.82089
G1 F922.3 X238.253 Y193.362 E6.83893
G1 X238.91 Y192.743 E6.85694
G1 X239.62 Y192.185 E6.87496
G1 X240.376 Y191.691 E6.89298
G1 X240.984 Y191.36 E6.9068
G1 X241.779 Y190.964 E6.92452
G1 X242.806 Y190.481 E6.94717
G1 X243.639 Y190.133 E6.96519
G1 X244.5 Y189.86 E6.98321
G1 X245.382 Y189.665 E7.00124
G1 X246.278 Y189.548 E7.01927
G1 X247.059 Y189.511 E7.03487
G1 X248.106 Y189.502 E7.05577
G1 X249.076 Y189.515 E7.07513
G1 X249.977 Y189.571 E7.09314
G1 X250.87 Y189.705 E7.11116
G1 X251.748 Y189.919 E7.1292
G1 X252.603 Y190.209 E7.14721
G1 X253.243 Y190.484 E7.16111
G1 X254.405 Y191.033 E7.18676
G1 X255.039 Y191.35 E7.20091
G1 X255.828 Y191.789 E7.21893
G1 X256.575 Y192.296 E7.23694
G1 X257.274 Y192.868 E7.25497
G1 X257.92 Y193.499 E7.27299
G1 X258.338 Y193.973 E7.2856
G1 X258.916 Y194.678 E7.30379
G1 X259.609 Y195.565 E7.32626
G1 X260.133 Y196.301 E7.34429
G1 X260.59 Y197.08 E7.36231
G1 X260.976 Y197.896 E7.38032
G1 X261.288 Y198.744 E7.39835
G1 X261.475 Y199.407 E7.4121
G1 X261.678 Y200.246 E7.42933
G1 X261.925 Y201.375 E7.45239
G1 X262.079 Y202.265 E7.47042
G1 X262.154 Y203.165 E7.48844
G1 X262.148 Y204.068 E7.50646
G1 X262.063 Y204.967 E7.52448
G1 X261.927 Y205.729 E7.53993
G1 X261.706 Y206.742 E7.56062
G1 X261.481 Y207.675 E7.57977
G1 X261.229 Y208.542 E7.59779
G1 X260.901 Y209.384 E7.61582
G1 X260.5 Y210.193 E7.63384
G1 X260.029 Y210.963 E7.65185
G1 X259.607 Y211.544 E7.66618
G1 X258.959 Y212.373 E7.68718
G1 X258.361 Y213.105 E7.70604
G1 X257.758 Y213.777 E7.72406
G1 X257.097 Y214.393 E7.74209
G1 X256.385 Y214.948 E7.76011
G1 X255.626 Y215.438 E7.77814
G1 X255.053 Y215.749 E7.79115
G1 X254.292 Y216.128 E7.80811
G1 X253.241 Y216.623 E7.8313
G1 X252.408 Y216.971 E7.84931
G1 X251.547 Y217.244 E7.86734
G1 X250.665 Y217.44 E7.88537
G1 X249.77 Y217.557 E7.90338
G1 X248.983 Y217.595 E7.91911
G1 X247.675 Y217.603 E7.94521
G1 X246.966 Y217.591 E7.95936
G1 X246.065 Y217.535 E7.97737
G1 X245.172 Y217.401 E7.99539
G1 X244.294 Y217.187 E8.01343
G1 X243.439 Y216.897 E8.03145
G1 X242.8 Y216.623 E8.04532
G1 X241.613 Y216.061 E8.07153
G1 X240.991 Y215.749 E8.08542
G1 X240.202 Y215.309 E8.10344
G1 X239.456 Y214.801 E8.12146
G1 X238.757 Y214.228 E8.13949
G1 X238.112 Y213.597 E8.1575
G1 X237.702 Y213.13 E8.1699
G1 X237.133 Y212.437 E8.1878
G1 X236.44 Y211.552 E8.21023
G1 X235.915 Y210.817 E8.22825
G1 X235.458 Y210.038 E8.24628
G1 X235.071 Y209.222 E8.2643
G1 X234.757 Y208.375 E8.28233
G1 X234.565 Y207.693 E8.29646
G1 X234.364 Y206.862 E8.31353
G1 X234.117 Y205.734 E8.33657
G1 X233.963 Y204.844 E8.35459
G1 X233.889 Y203.944 E8.37262
G1 X233.894 Y203.041 E8.39064
G1 X233.979 Y202.142 E8.40866
G1 X234.103 Y201.436 E8.42296
G1 X234.283 Y200.601 E8.44001
G1 X234.546 Y199.491 E8.46277
G1 X234.793 Y198.623 E8.48078
G1 X235.115 Y197.779 E8.49881
G1 X235.512 Y196.968 E8.51683
G1 X235.978 Y196.194 E8.53486
G1 X236.397 Y195.61 E8.5492
G1 X236.937 Y194.916 E8.56675
G1 X237.652 Y194.037 E8.58936
G1 F2400 E8.08936
;MESH:step_motor_adapter.stl(1)
G0 F7500 X244.002 Y201.35
G0 X245.717 Y205.82
;TYPE:WALL-INNER
G1 F2400 E8.58936
G1 F640.5 X246.002 Y206.08 E8.60045
G1 F653 X247.065 Y206.672 E8.63474
G1 F692.2 X247.296 Y206.738 E8.64113
G1 F693.5 X248.744 Y206.738 E8.67957
G1 X248.986 Y206.668 E8.68625
G1 F654.1 X250.037 Y206.08 E8.72014
G1 F715 X250.416 Y205.734 E8.73335
G1 F836.6 X250.571 Y205.53 E8.73899
G1 F698.7 X250.924 Y204.953 E8.7568
G1 F658.8 X251.243 Y203.993 E8.78507
G1 F674.5 X251.262 Y203.552 E8.79711
G1 F653 X251.001 Y202.164 E8.83692
G1 F704.1 X250.018 Y200.972 E8.87732
G1 F778.3 X249.71 Y200.782 E8.88587
G1 F700.1 X248.735 Y200.404 E8.91337
G1 F696.1 X248.196 Y200.327 E8.92776
G1 F829.1 X247.914 Y200.318 E8.93403
G1 F705.4 X247.305 Y200.404 E8.95008
G1 F663.6 X246.276 Y200.804 E8.9807
G1 F693.5 X245.99 Y201.009 E8.99004
G1 F666 X245.035 Y202.165 E9.03148
G1 F654.1 X244.778 Y203.552 E9.07118
G1 F675.7 X244.797 Y203.993 E9.0832
G1 F654.1 X245.114 Y204.953 E9.11165
G1 F693.5 X245.468 Y205.53 E9.12961
G1 F832.8 X245.626 Y205.736 E9.13535
G1 F740.8 X245.717 Y205.82 E9.13843
G0 F7500 X245.404 Y206.128
;TYPE:WALL-OUTER
G1 F922.3 X245.684 Y206.479 E9.14739
G1 X247.19 Y207.204 E9.18074
G1 X248.85 Y207.204 E9.21387
G1 X250.355 Y206.479 E9.24721
G1 X251.391 Y205.178 E9.2804
G1 X251.766 Y203.552 E9.3137
G1 X251.391 Y201.926 E9.347
G1 X250.356 Y200.625 E9.38017
G1 X248.85 Y199.9 E9.41353
G1 X247.19 Y199.9 E9.44666
G1 X245.684 Y200.625 E9.48001
G1 X244.645 Y201.926 E9.51324
